src/pos-icons/account-supervisor-circle.svg

<svg height="24" viewBox="0 0 24 24" width="24" xmlns="http://www.w3.org/2000/svg"><path d="m12 2c-5.53 0-10 4.5-10 10a10 10 0 0 0 10 10 10 10 0 0 0 10-10 10 10 0 0 0 -10-10m3.6 6.34c1.07 0 1.93.86 1.93 1.93s-.86 1.93-1.93 1.93a1.93 1.93 0 0 1 -1.93-1.93c-.01-1.07.86-1.93 1.93-1.93m-6-1.58c1.3 0 2.36 1.06 2.36 2.36s-1.06 2.38-2.36 2.38-2.36-1.08-2.36-2.38c0-1.31 1.05-2.36 2.36-2.36m0 9.13v3.75c-2.4-.75-4.3-2.6-5.14-4.96 1.04-1.12 3.67-1.68 5.14-1.68.53 0 1.2.07 1.9.21-1.64.87-1.9 2.02-1.9 2.68m2.4 4.11c-.28 0-.54 0-.8-.04v-4.07c0-1.42 2.94-2.13 4.4-2.13 1.07 0 2.9.39 3.84 1.15-1.17 2.97-4.06 5.09-7.44 5.09z"/></svg>

<?xml version="1.0" encoding="UTF-8"?><!DOCTYPE svg PUBLIC "-//W3C//DTD SVG 1.1//EN" "http://www.w3.org/Graphics/SVG/1.1/DTD/svg11.dtd"><svg xmlns="http://www.w3.org/2000/svg" xmlns:xlink="http://www.w3.org/1999/xlink" version="1.1" id="mdi-account-supervisor-circle" width="24" height="24" viewBox="0 0 24 24"><path d="M12,2C6.47,2 2,6.5 2,12A10,10 0 0,0 12,22A10,10 0 0,0 22,12A10,10 0 0,0 12,2M15.6,8.34C16.67,8.34 17.53,9.2 17.53,10.27C17.53,11.34 16.67,12.2 15.6,12.2A1.93,1.93 0 0,1 13.67,10.27C13.66,9.2 14.53,8.34 15.6,8.34M9.6,6.76C10.9,6.76 11.96,7.82 11.96,9.12C11.96,10.42 10.9,11.5 9.6,11.5C8.3,11.5 7.24,10.42 7.24,9.12C7.24,7.81 8.29,6.76 9.6,6.76M9.6,15.89V19.64C7.2,18.89 5.3,17.04 4.46,14.68C5.5,13.56 8.13,13 9.6,13C10.13,13 10.8,13.07 11.5,13.21C9.86,14.08 9.6,15.23 9.6,15.89M12,20C11.72,20 11.46,20 11.2,19.96V15.89C11.2,14.47 14.14,13.76 15.6,13.76C16.67,13.76 18.5,14.15 19.44,14.91C18.27,17.88 15.38,20 12,20Z" /></svg>
